assets/icons/24px/stroke/chevron-double-right-24px.svg

<svg width="24" height="24" viewBox="0 0 24 24" fill="none" xmlns="http://www.w3.org/2000/svg">
<path fill-rule="evenodd" clip-rule="evenodd" d="M17.8766 11.3817C17.5935 11.0107 17.1512 10.5653 16.4645 9.87868L11.293 4.70711C10.9024 4.31658 10.9024 3.68342 11.293 3.29289C11.6835 2.90237 12.3166 2.90237 12.7072 3.29289L17.8787 8.46447C17.8943 8.48004 17.9098 8.49556 17.9253 8.51102C18.5522 9.13782 19.0923 9.67789 19.4667 10.1685C19.8679 10.6944 20.1716 11.2792 20.1716 12C20.1716 12.7208 19.8679 13.3056 19.4667 13.8315C19.0923 14.3221 18.5522 14.8622 17.9253 15.489L12.7072 20.7071C12.3166 21.0976 11.6835 21.0976 11.293 20.7071C10.9024 20.3166 10.9024 19.6834 11.293 19.2929L16.4645 14.1213C17.1512 13.4347 17.5935 12.9893 17.8766 12.6183C18.1421 12.2704 18.1716 12.1077 18.1716 12C18.1716 11.8923 18.1421 11.7296 17.8766 11.3817Z" fill="white"/>
<path fill-rule="evenodd" clip-rule="evenodd" d="M9.87661 11.3817C9.59354 11.0107 9.15118 10.5653 8.46453 9.87868L3.29295 4.70711C2.90243 4.31658 2.90243 3.68342 3.29295 3.29289C3.68348 2.90237 4.31664 2.90237 4.70716 3.29289L9.87874 8.46447C9.89431 8.48004 9.90983 8.49556 9.92529 8.51102C10.5522 9.13782 11.0923 9.67789 11.4667 10.1685C11.8679 10.6944 12.1716 11.2792 12.1716 12C12.1716 12.7208 11.8679 13.3056 11.4667 13.8315C11.0923 14.3221 10.5522 14.8622 9.92528 15.489L4.70716 20.7071C4.31664 21.0976 3.68347 21.0976 3.29295 20.7071C2.90243 20.3166 2.90243 19.6834 3.29295 19.2929L8.46453 14.1213C9.15118 13.4347 9.59354 12.9893 9.87661 12.6183C10.1421 12.2704 10.1716 12.1077 10.1716 12C10.1716 11.8923 10.1421 11.7296 9.87661 11.3817Z" fill="white"/>
</svg>

<svg width="24" height="24" fill="none" xmlns="http://www.w3.org/2000/svg"><path fill-rule="evenodd" clip-rule="evenodd" d="M17.877 11.382c-.284-.371-.726-.817-1.412-1.503l-5.172-5.172a1 1 0 1 1 1.414-1.414l5.172 5.171.046.047c.627.627 1.167 1.167 1.542 1.658.4.525.705 1.11.705 1.831 0 .72-.304 1.306-.705 1.832-.375.49-.915 1.03-1.542 1.657l-5.218 5.218a1 1 0 0 1-1.414-1.414l5.172-5.172c.686-.686 1.128-1.132 1.412-1.503.265-.348.295-.51.295-.618 0-.108-.03-.27-.295-.618z" fill="#fff"/><path fill-rule="evenodd" clip-rule="evenodd" d="M9.877 11.382c-.283-.371-.726-.817-1.412-1.503L3.293 4.707a1 1 0 0 1 1.414-1.414L9.88 8.464l.046.047c.627.627 1.167 1.167 1.542 1.658.4.525.705 1.11.705 1.831 0 .72-.304 1.306-.705 1.832-.375.49-.915 1.03-1.542 1.657l-5.218 5.218a1 1 0 0 1-1.414-1.414l5.172-5.172c.686-.686 1.129-1.132 1.412-1.503.265-.348.295-.51.295-.618 0-.108-.03-.27-.295-.618z" fill="#fff"/></svg>
